X:1
T:Berggren, 12.10.11.10
T:Andreas Peter Berggreen (1801-1880)
T:Berggren, 12.10.11.10
T:Public Domain
C:Andreas Peter Berggreen (1801-1880)
Z:Public Domain
%%score ( 1 2 ) ( 3 4 )
L:1/8
M:none
K:Db
V:1 treble 
V:2 treble 
V:3 bass 
V:4 bass 
V:1
 [DA]4 [DG]2 [DF]2 | [DF]4 [DE]2 [DE]2 | [DB]3 [DB] [CA]2 [CG]2 | [DG]4 [DF]4 | %4
 z2 [A,F]2 [A,E]2 [A,D]2 | [G,D]6 C2 x2 | [B,D]2 [B,D]2 [DF]3 [DE] | [CE]8 | %8
 z2 [CE]2 [CE]2 [=DF]2 | [EG]6 [EG]2 x2 | [Ge]3 [Fd] [Gc]2 [GB]2 | [EB]4 [EA]4 | %12
 z2 [DA]2 [DG]2 [DF]2 | [DE]3 [DE] [DF]2 [DG]2 | D4 z2 E2 x2 | D8 |] %16
V:2
 x8 | x8 | x8 | x8 | x8 | x6 C2 x2 | x8 | x8 | x8 | x10 | x8 | x8 | x8 | x8 | F6 C4 | D8 |] %16
V:3
 [D,F,]4 [D,B,]2 [D,A,]2 | [G,B,]4 [G,B,]2 [G,B,]2 | [G,B,]3 [G,B,] [A,,E,]2 [A,,A,]2 | %3
 [D,A,]4 [D,A,]4 | z2 [D,A,]2 [C,G,]2 [D,F,]2 | E,4 z2 G,2 x2 | %6
 [B,,F,]2 [B,,F,]2 [=G,,B,]3 [G,,B,] | [A,,A,]8 | z2 A,2 [G,A,]2 [F,A,]2 | E,4 z2 B,2 x2 | %10
 [C,A,]3 [D,A,] [E,G,]2 [D,G,]2 | [C,G,]4 [C,G,]4 | z2 [_C,F,]2 [B,,G,]2 [A,,A,]2 | %13
 [G,,B,]3 [G,,B,] [F,,A,]2 [E,,G,]2 | [A,,A,]4 [A,,A,]4 x2 | [D,,D,F,]8 |] %16
V:4
 x8 | x8 | x8 | x8 | x8 | E,6 A,,4 | x8 | x8 | x2 A,2 x4 | B,6 E,4 | x8 | x8 | x8 | x8 | x10 | %15
 x8 |] %16

